fritzing/parts/svg/core/schematic/basic_transistor_npn.svg

<?xml version="1.0" encoding="utf-8"?>
<!-- Generator: Adobe Illustrator 16.0.0, SVG Export Plug-In . SVG Version: 6.00 Build 0)  -->
<!DOCTYPE svg PUBLIC "-//W3C//DTD SVG 1.1//EN" "http://www.w3.org/Graphics/SVG/1.1/DTD/svg11.dtd">
<svg version="1.1" id="svg2" xmlns:svg="http://www.w3.org/2000/svg"
	 xmlns="http://www.w3.org/2000/svg" xmlns:xlink="http://www.w3.org/1999/xlink" x="0px" y="0px" width="50.63px"
	 height="63.021px" viewBox="0 0 50.63 63.021" enable-background="new 0 0 50.63 63.021" xml:space="preserve">
<g id="schematic" transform="translate(18,0)">
	<g transform="translate(-18,0)">
		<rect id="connector1pin" x="42.633" y="1.237" width="1.894" height="9.783"/>
		<rect id="connector1terminal" x="43.142" y="0.876" width="0.866" height="0.684"/>
		<rect id="connector2pin" x="41.968" y="52.568" width="2.023" height="9.781"/>
		<rect id="connector2terminal" x="43" y="62.131" width="0.867" height="0.686"/>
		<rect id="connector0pin" x="2.057" y="30.747" width="9.781" height="1.894"/>
		<rect id="connector0terminal" x="1.591" y="31.268" width="0.686" height="0.867"/>
	</g>
	<g id="g10" transform="translate(-0.464,0)">
		<path id="path12" d="M24.464,61.909V44.004c0-0.615,0.498-1.111,1.112-1.111l0,0c0.615,0,1.113,0.496,1.113,1.111l0,0v17.905
			c0,0.614-0.498,1.112-1.113,1.112l0,0C24.962,63.021,24.464,62.523,24.464,61.909L24.464,61.909z"/>
	</g>
	<g id="g14">
		<path id="path16" d="M24.463,19.799V1.742c0-0.616,0.498-1.114,1.115-1.114l0,0c0.614,0,1.112,0.498,1.112,1.114l0,0v18.057
			c0,0.615-0.498,1.113-1.112,1.113l0,0C24.961,20.912,24.463,20.414,24.463,19.799L24.463,19.799z"/>
	</g>
	<g id="g18">
		<polygon id="polygon20" points="11.687,42.379 11.687,21.365 13.915,21.365 13.915,42.379 		"/>
	</g>
	<circle id="circle22" fill="none" stroke="#000000" stroke-width="1.8499" cx="16.558" cy="31.807" r="14.953"/>
	<g id="g24" transform="matrix(1.0372442,0,0,1,0.6180304,0)">
		<path id="path26" d="M-15.345,33c-0.689,0-1.249-0.559-1.249-1.247l0,0c0-0.69,0.56-1.249,1.249-1.249l0,0h25.678
			c0.689,0,1.249,0.559,1.249,1.249l0,0c0,0.688-0.56,1.247-1.249,1.247l0,0H-15.345L-15.345,33z"/>
	</g>
	<g id="g28">
		<g id="g30">
			<path id="path32" d="M0,0"/>
		</g>
		<g id="g34" transform="matrix(0.9712211,0,0,0.9055168,2.3963302,3.732273)">
			<polygon id="polygon36" points="9.529,33.402 10.846,31.897 18.645,38.722 17.328,40.227 			"/>
		</g>
		<g id="g38">
			<polygon id="polygon40" points="20.68,36.1 25.921,44.803 16.598,40.765 			"/>
		</g>
	</g>
	<g id="g42">
		<polygon id="polygon44" points="12.005,29.762 25.072,19.084 26.181,20.491 13.112,31.168 		"/>
	</g>
</g>
</svg>

<?xml version="1.0" encoding="UTF-8" standalone="no"?>
<svg
   xmlns:svg="http://www.w3.org/2000/svg"
   xmlns="http://www.w3.org/2000/svg"
   version="1.2"
   baseProfile="tiny"
   x="0px"
   y="0px"
   width=".58in"
   height=".72in"
   id="svg2"
   >


  <g
     id="schematic"
     style="display:inline"
     transform="translate(18,0)">
     
   <g  transform="translate(-18,0)">
   <rect
     id="connector1pin"
     x="42.632999"
     y="1.237"
     width="1.893"
     height="9.783" />
  <rect
     id="connector1terminal"
     x="43.140999"
     y="0.87599999"
     width="0.86699998"
     height="0.68400002" />
  <rect
     id="connector2pin"
     x="41.967129"
     y="52.569"
     width="2.0241742"
     height="9.7810001" />
  <rect
     id="connector2terminal"
     x="43"
     y="62.131001"
     width="0.86699998"
     height="0.68599999" />
  <rect
     id="connector0pin"
     x="2.0570002"
     y="30.747"
     width="9.7810001"
     height="1.893" />
  <rect
     id="connector0terminal"
     x="1.5909996"
     y="31.268"
     width="0.68599999"
     height="0.86699998" />
     </g>
     
     
    <g
       id="g10"
       transform="translate(-0.464,0)">
      <path
         d="M 24.464,61.909 L 24.464,44.004 C 24.464,43.389 24.962,42.892 25.577,42.892 L 25.577,42.892 C 26.192,42.892 26.69,43.389 26.69,44.004 L 26.69,44.004 L 26.69,61.909 C 26.69,62.524 26.192,63.021 25.577,63.021 L 25.577,63.021 C 24.962,63.021 24.464,62.524 24.464,61.909 L 24.464,61.909 z"
         id="path12" />
    </g>
    <g
       id="g14">
      <path
         d="M 24.463,19.799 L 24.463,1.742 C 24.463,1.126 24.961,0.628 25.578,0.628 L 25.578,0.628 C 26.193,0.628 26.691,1.126 26.691,1.742 L 26.691,1.742 L 26.691,19.799 C 26.691,20.414 26.193,20.912 25.578,20.912 L 25.578,20.912 C 24.961,20.912 24.463,20.414 24.463,19.799 L 24.463,19.799 z"
         id="path16" />
    </g>
    <g
       id="g18">
      <polygon
         points="9.719,45.658 9.719,17.954 11.947,17.954 11.947,45.658 9.719,45.658 "
         id="polygon20"
         transform="matrix(1,0,0,0.758523,1.9676114,7.7460046)" />
    </g>
    <circle
       cx="16.556999"
       cy="31.806999"
       r="14.953"
       id="circle22"
       style="fill:none;stroke:#000000;stroke-width:1.84990001" />
    <g
       id="g24"
       transform="matrix(1.0372442,0,0,1,0.6180304,0)">
      <path
         d="M -15.345,33 C -16.034,33 -16.594,32.442 -16.594,31.753 L -16.594,31.753 C -16.594,31.062 -16.034,30.504 -15.345,30.504 L -15.345,30.504 L 10.333,30.504 C 11.022,30.504 11.582,31.062 11.582,31.753 L 11.582,31.753 C 11.582,32.442 11.022,33 10.333,33 L 10.333,33 L -15.345,33 L -15.345,33 z"
         id="path26" />
    </g>
    <g
       id="g28">
      <g
         id="g30">
        <path
           id="path32" />
      </g>
      <g
         id="g34"
         transform="matrix(0.9712211,0,0,0.9055168,2.3963302,3.732273)">
        <polygon
           points="10.339,32.678 11.657,31.172 19.455,37.998 18.139,39.502 10.339,32.678 "
           id="polygon36"
           transform="translate(-0.810366,0.7243051)" />
      </g>
      <g
         id="g38">
        <polygon
           points="20.024,35.706 25.265,44.41 15.942,40.371 20.024,35.706 "
           id="polygon40"
           transform="translate(0.6558705,0.3935223)" />
      </g>
    </g>
    <g
       id="g42">
      <polygon
         points="10.168,30.921 24.929,19.084 26.18,20.644 11.419,32.48 10.168,30.921 "
         id="polygon44"
         transform="matrix(0.8853087,0,0,0.9020797,3.0026186,1.8687119)" />
    </g>
  </g>
</svg>
